X:1
T:Soul Cakes
M:4/4
L:1/4
K:G
 E2 D2| E2 B,2| E E D/2D/2 F| E2 B, B,| E/2E/2 E F F| G A/2G/2 F/2 F3/2|\
 B/2B/2 B AB/2-A/2| G A/2G/2 F B,| E E D F| E E B,2| E E F F| GA/2-G/2 F2|\


